symbols/web/skip_next/materialsymbolsrounded/skip_next_wght300fill1_48px.svg

<svg xmlns="http://www.w3.org/2000/svg" height="48" width="48"><path d="M34.65 34.6q-.5 0-.825-.325-.325-.325-.325-.775v-19q0-.45.325-.775t.825-.325q.5 0 .8.325.3.325.3.775v19q0 .45-.325.775t-.775.325ZM14.5 33.05q-.75.5-1.5.1t-.75-1.25V16.1q0-.85.75-1.25t1.5.1l11.4 7.85q.65.45.65 1.2t-.65 1.2Z"/></svg>

<svg xmlns="http://www.w3.org/2000/svg" height="48" width="48"><path d="M34.65 34.6Q34.15 34.6 33.825 34.275Q33.5 33.95 33.5 33.5V14.5Q33.5 14.05 33.825 13.725Q34.15 13.4 34.65 13.4Q35.15 13.4 35.45 13.725Q35.75 14.05 35.75 14.5V33.5Q35.75 33.95 35.425 34.275Q35.1 34.6 34.65 34.6ZM14.5 33.05Q13.75 33.55 13 33.15Q12.25 32.75 12.25 31.9V16.1Q12.25 15.25 13 14.85Q13.75 14.45 14.5 14.95L25.9 22.8Q26.55 23.25 26.55 24Q26.55 24.75 25.9 25.2Z"/></svg>
